.local/share/icons/Gruvbox-Plus-Dark/actions/16/playlist-queue.svg

<svg xmlns="http://www.w3.org/2000/svg" width="16" height="16" viewBox="0 0 16 16">
 <defs>
  <style id="current-color-scheme" type="text/css">
   .ColorScheme-Text { color:#ebdbb2; } .ColorScheme-Highlight { color:#458588; }
  </style>
 </defs>
 <path style="fill:currentColor" class="ColorScheme-Text" d="M 1 1 L 1 3 L 15 3 L 15 1 L 1 1 z M 9 5 L 9 7 L 9 13 L 9 15 L 14 15 L 14 16 L 16 16 L 16 14 L 15 14 L 15 13 L 15 7 L 15 5 L 9 5 z M 1 5.0039062 L 1 7.0039062 L 7 7.0039062 L 7 5.0039062 L 1 5.0039062 z M 11 7 L 13 7 L 13 13 L 11 13 L 11 7 z M 1 9.0039062 L 1 11.003906 L 7 11.003906 L 7 9.0039062 L 1 9.0039062 z M 1 13 L 1 15 L 7 15 L 7 13 L 1 13 z"/>
</svg>

<svg width="16" height="16" version="1.1" xmlns="http://www.w3.org/2000/svg">
  <defs>
    <style id="current-color-scheme" type="text/css">.ColorScheme-Text { color:#ebdbb2; } .ColorScheme-Highlight { color:#458588; }</style>
  </defs>
  <path class="ColorScheme-Text" d="m1 1v2h14v-2h-14zm8 4v10h5v1h2v-2h-1v-9h-6zm-8 0.003906v2h6v-2h-6zm10 1.996h2v6h-2v-6zm-10 2.004v2h6v-2h-6zm0 3.996v2h6v-2h-6z" fill="currentColor"/>
</svg>
